X:1
T: The Birches, Crieff
C:
R:Reel
Q:232
K:D
M:4/4
L:1/8
dc de d2A2|F2A2 D2z2|e^d ef e2B2|G2B2 E2z2|
c2ce B2Bd|A2Ac G3D|CD EF GA Bc|B2A2 A2Bc|
dc de d2A2|F2A2 D2z2|e^d ef e2B2|G2B2 E3A|
a2af g2ge|f2fd e2ec|dc BA GA Bc|d2D2 d2f2|
a3^g ab a=g|f2d2 f2z2|e3^d ef e=d|c2A2 c2z2|
B3^A Bc de|f2d2 a3f|e^d ed ef^ ge|a2A2 a3f|
|:a^g ag ab a=g|f2d2 f2z2|e^d ed ef e=d|c2A2 c3A|
a2af g2ge|f2fd e2ec|dc BA GA Bc|1d2D2 de fg:|2d2D2 d2z2||
